img/logo.svg

<svg width="160" height="40" viewBox="0 0 160 40" fill="none" xmlns="http://www.w3.org/2000/svg">
<g id="myteam-logo">
<path id="myteam" fill-rule="evenodd" clip-rule="evenodd" d="M68.3174 29.5312V13.2143H72.6997V8.19196H68.3174V0H62.1474V8.19196H58.3538V13.2143H62.1474V29.5312H68.3174ZM6.21366 18.2366V29.5312H0V8.19196H6.21366V11.2946C6.72238 10.1935 7.44913 9.32292 8.3939 8.68304C9.41134 8.07292 10.5015 7.76786 11.6642 7.76786C14.9637 7.76786 17.1948 9.01786 18.3576 11.5179C19.8837 8.9881 21.9549 7.72321 24.5712 7.72321C27.1875 7.72321 29.186 8.56399 30.5669 10.2455C31.9477 11.9271 32.6381 14.3155 32.6381 17.4107V29.5312H26.4898V18.1473C26.4898 16.8378 26.1773 15.8036 25.5523 15.0446C24.8983 14.2857 24.0407 13.9062 22.9797 13.9062C21.9186 13.9062 21.0683 14.2634 20.4288 14.9777C19.7892 15.692 19.4695 16.7783 19.4695 18.2366V29.5312H13.2558V18.0134C13.1977 16.7336 12.8561 15.7292 12.2311 15C11.5916 14.2708 10.7631 13.9062 9.74564 13.9062C8.7282 13.9062 7.88517 14.256 7.21657 14.9554C6.54797 15.6548 6.21366 16.7485 6.21366 18.2366ZM57.4981 8.19196L44.6347 40H38.0722L43.0868 27.3438L35.0417 8.19196H41.6478L46.2481 20.2902L50.892 8.19196H57.4981ZM95.2923 25.6473C93.3591 28.5491 90.1833 29.9926 85.7646 29.9777C82.6978 29.9777 80.1106 28.9435 78.003 26.875C75.9245 24.7768 74.8853 22.0833 74.8853 18.7946C74.8853 15.506 75.9245 12.8348 78.003 10.7812C80.0815 8.72768 82.6542 7.70833 85.721 7.72321C88.7879 7.72321 91.3388 8.76488 93.3737 10.8482C95.4085 12.9315 96.4333 15.6399 96.4478 18.9732C96.4478 19.003 96.4187 19.6577 96.3606 20.9375H81.0771C81.1934 22.0685 81.7603 22.9464 82.7777 23.5714C83.7952 24.1964 84.9434 24.5089 86.2225 24.5089C88.2138 24.5089 89.7327 23.8393 90.7792 22.5L95.2923 25.6473ZM90.1905 16.9643H81.1644C81.3969 15.8036 81.9783 14.8958 82.9085 14.2411C83.8097 13.5863 84.7835 13.2738 85.83 13.3036C86.8766 13.3333 87.8286 13.6607 88.6862 14.2857C89.5437 14.9107 90.0452 15.8036 90.1905 16.9643ZM113.088 29.2188C111.911 29.7247 110.785 29.9628 109.709 29.933C106.846 29.933 104.36 28.9062 102.253 26.8527C100.145 24.7991 99.0912 22.128 99.0912 18.8393C99.0912 15.5506 100.181 12.8795 102.362 10.8259C104.542 8.77232 106.991 7.7381 109.709 7.72321C110.814 7.72321 111.947 7.96875 113.11 8.45982C114.273 8.95089 115.167 9.6503 115.792 10.558V8.19196H121.94V29.5312H115.792V27.0982C115.167 28.006 114.266 28.7128 113.088 29.2188ZM110.712 23.9062C109.302 23.9062 108.088 23.4301 107.071 22.4777C106.024 21.5253 105.501 20.3199 105.501 18.8616C105.501 17.4182 106.024 16.2054 107.071 15.2232C108.205 14.256 109.447 13.7723 110.799 13.7723C112.151 13.7723 113.321 14.2485 114.309 15.2009C115.298 16.1533 115.792 17.3735 115.792 18.8616C115.792 20.3497 115.298 21.5625 114.309 22.5C113.321 23.4375 112.122 23.9062 110.712 23.9062ZM133.522 18.2366V29.5312H127.309V8.19196H133.522V11.2946C134.031 10.1935 134.758 9.32292 135.703 8.68304C136.72 8.07292 137.81 7.76786 138.973 7.76786C142.272 7.76786 144.504 9.01786 145.666 11.5179C147.193 8.9881 149.264 7.72321 151.88 7.72321C154.496 7.72321 156.495 8.56399 157.876 10.2455C159.256 11.9271 159.947 14.3155 159.947 17.4107V29.5312H153.799V18.1473C153.799 16.8378 153.486 15.8036 152.861 15.0446C152.207 14.2857 151.35 13.9062 150.288 13.9062C149.227 13.9062 148.377 14.2634 147.738 14.9777C147.098 15.692 146.778 16.7783 146.778 18.2366V29.5312H140.565V18.0134C140.506 16.7336 140.165 15.7292 139.54 15C138.9 14.2708 138.072 13.9062 137.054 13.9062C136.037 13.9062 135.194 14.256 134.525 14.9554C133.857 15.6548 133.522 16.7485 133.522 18.2366Z" fill="white"/>
</g>
</svg>

<svg width="160" height="40" fill="none" xmlns="http://www.w3.org/2000/svg"><path fill-rule="evenodd" clip-rule="evenodd" d="M68.317 29.531V13.214H72.7V8.192h-4.383V0h-6.17v8.192h-3.793v5.022h3.793v16.317h6.17zM6.214 18.237V29.53H0V8.192h6.214v3.103c.508-1.101 1.235-1.972 2.18-2.612a6.251 6.251 0 0 1 3.27-.915c3.3 0 5.53 1.25 6.694 3.75 1.526-2.53 3.597-3.795 6.213-3.795s4.615.841 5.996 2.522c1.38 1.682 2.071 4.07 2.071 7.166v12.12H26.49V18.147c0-1.31-.313-2.343-.938-3.102-.654-.76-1.511-1.139-2.572-1.139-1.061 0-1.912.357-2.551 1.072-.64.714-.96 1.8-.96 3.259V29.53h-6.213V18.013c-.058-1.28-.4-2.284-1.025-3.013-.64-.73-1.468-1.094-2.485-1.094-1.018 0-1.86.35-2.53 1.05-.668.699-1.002 1.793-1.002 3.28zM57.498 8.192 44.635 40h-6.563l5.015-12.656-8.045-19.152h6.606l4.6 12.098 4.644-12.098h6.606zm37.794 17.455c-1.933 2.902-5.109 4.346-9.527 4.33-3.067 0-5.654-1.034-7.762-3.102-2.079-2.098-3.118-4.792-3.118-8.08 0-3.289 1.04-5.96 3.118-8.014 2.079-2.053 4.651-3.073 7.718-3.058 3.067 0 5.618 1.042 7.653 3.125 2.035 2.083 3.06 4.792 3.074 8.125 0 .03-.03.685-.087 1.965H81.077c.116 1.13.683 2.008 1.7 2.633 1.018.625 2.166.938 3.445.938 1.992 0 3.51-.67 4.557-2.009l4.513 3.147zm-5.102-8.683h-9.026c.233-1.16.814-2.068 1.745-2.723.9-.655 1.874-.967 2.921-.937a4.987 4.987 0 0 1 2.856.982c.858.625 1.36 1.518 1.504 2.678zm22.898 12.255c-1.177.506-2.303.744-3.379.714-2.863 0-5.349-1.027-7.456-3.08-2.108-2.054-3.162-4.725-3.162-8.014 0-3.288 1.09-5.96 3.271-8.013 2.18-2.054 4.629-3.088 7.347-3.103 1.105 0 2.238.246 3.401.737 1.163.49 2.057 1.19 2.682 2.098V8.192h6.148v21.34h-6.148v-2.434c-.625.908-1.526 1.615-2.704 2.12zm-2.376-5.313c-1.41 0-2.624-.476-3.641-1.428-1.047-.953-1.57-2.158-1.57-3.616 0-1.444.523-2.657 1.57-3.639 1.134-.967 2.376-1.45 3.728-1.45 1.352 0 2.522.476 3.51 1.428.989.952 1.483 2.172 1.483 3.66 0 1.489-.494 2.701-1.483 3.639-.988.938-2.187 1.406-3.597 1.406zm22.81-5.67v11.295h-6.213V8.192h6.213v3.103c.509-1.101 1.236-1.972 2.181-2.612a6.248 6.248 0 0 1 3.27-.915c3.299 0 5.531 1.25 6.693 3.75 1.527-2.53 3.598-3.795 6.214-3.795 2.616 0 4.615.841 5.996 2.522 1.38 1.682 2.071 4.07 2.071 7.166v12.12h-6.148V18.147c0-1.31-.313-2.343-.938-3.102-.654-.76-1.511-1.139-2.573-1.139-1.061 0-1.911.357-2.55 1.072-.64.714-.96 1.8-.96 3.259V29.53h-6.213V18.013c-.059-1.28-.4-2.284-1.025-3.013-.64-.73-1.468-1.094-2.486-1.094-1.017 0-1.86.35-2.529 1.05-.668.699-1.003 1.793-1.003 3.28z" fill="#fff"/></svg>
